public/assets/stats/book4.svg

<svg xmlns="http://www.w3.org/2000/svg" width="851" height="449" fill="none"><g filter="url(#a)"><path fill="#EC6D7F" d="M160.729 51.814 87.342 110.93l704.091 137.162-53.229-84.123a8 8 0 0 0-5.23-3.574L167.277 50.192a8 8 0 0 0-6.548 1.622"/><path fill="url(#b)" d="M81.58 112.657c4.228-6.619 12.12-9.08 19.829-7.579l676.777 131.841c9.466 1.844 16.997 9.183 18.608 18.692 8.833 52.115 2.008 85.269-25.843 131.956-5.031 8.433-14.918 12.598-24.557 10.721L68.384 266.207c-6.815-1.328-12.695-5.599-14.51-12.301-3.374-12.459-6.585-36.596 1.987-73.92 8.12-35.353 18.7-56.337 25.72-67.329"/><path fill="#EC6D7F" d="m318.809 248.789.658-3.282 13.012-7.772q1.574-.921 2.26-1.907.705-.98.915-2.059.265-1.36-.126-2.555a4.6 4.6 0 0 0-1.323-2.055q-.936-.843-2.314-1.111-1.414-.275-2.658.179-1.223.441-2.054 1.416a4.7 4.7 0 0 0-1.062 2.25l-3.781-.737q.482-2.473 1.956-4.111a8 8 0 0 1 3.66-2.313q2.168-.678 4.694-.186 2.403.468 4.098 1.935a8.05 8.05 0 0 1 2.425 3.553q.745 2.108.273 4.528-.34 1.75-1.037 2.879a7.5 7.5 0 0 1-1.819 1.993q-1.122.864-2.737 1.814l-10.038 5.967-.2-1.139 13.092 2.55-.685 3.516zm28.883 6.196a8.7 8.7 0 0 1-3.502-1.508 8.9 8.9 0 0 1-2.446-2.787 8.8 8.8 0 0 1-1.074-3.62l3.737-.262q.08 1.189.643 2.16a5.4 5.4 0 0 0 1.48 1.627 5.1 5.1 0 0 0 1.964.841q1.395.273 2.657-.179a5 5 0 0 0 2.153-1.451 4.9 4.9 0 0 0 1.157-2.36q.272-1.397-.197-2.661a5 5 0 0 0-1.472-2.139 4.9 4.9 0 0 0-2.361-1.157q-1.555-.303-2.752.106-1.199.408-1.958 1.104l-2.995-1.757 3.383-13.223 13.728 2.674-.678 3.481-11.838-2.306 1.774-1.104-2.57 9.898-.542-1.078a6.85 6.85 0 0 1 2.702-1.069q1.5-.258 2.877.01 2.368.462 4.01 1.918a8.14 8.14 0 0 1 2.369 3.561q.713 2.083.248 4.468-.462 2.367-2.059 4.073a9.26 9.26 0 0 1-3.832 2.445 8.87 8.87 0 0 1-4.606.295m20.263-1.5 1.274-6.537-6.537-1.273.578-2.968 6.537 1.273 1.267-6.502 2.968.579-1.267 6.501 6.52 1.27-.579 2.969-6.519-1.27-1.273 6.537zm29.347 11.164q-2.739-.534-4.765-1.9-2.004-1.381-3.095-3.409-1.069-2.041-1.022-4.545l3.965.167q.13 2.446 1.73 4.115 1.603 1.65 4.077 2.133 1.537.299 2.92.073 1.386-.243 2.339-.993.973-.764 1.222-2.036a2.9 2.9 0 0 0-.01-1.267 2.7 2.7 0 0 0-.475-1.046 3.6 3.6 0 0 0-.873-.885 7.6 7.6 0 0 0-1.19-.764l-6.144-3.196q-.899-.468-1.802-1.103a7.8 7.8 0 0 1-1.59-1.538 5.9 5.9 0 0 1-.97-2.078q-.299-1.195.004-2.75.458-2.35 1.976-3.741 1.539-1.405 3.768-1.833 2.232-.445 4.794.053 2.572.538 4.432 1.817 1.877 1.283 2.897 3.205 1.04 1.908 1.095 4.358l-4.089-.1q.014-1.482-.652-2.676a5.8 5.8 0 0 0-1.81-2.003 6.9 6.9 0 0 0-2.608-1.113q-1.406-.31-2.679-.082-1.256.232-2.124.925a2.96 2.96 0 0 0-1.061 1.774q-.207 1.06.284 1.834t1.317 1.339q.846.55 1.699.973l4.442 2.24q.834.42 1.865 1.06a9.2 9.2 0 0 1 1.95 1.572q.916.95 1.363 2.32.452 1.353.09 3.208-.375 1.926-1.438 3.241a7.3 7.3 0 0 1-2.613 2.022q-1.532.71-3.395.86a14 14 0 0 1-3.824-.231m21.68 4.223q-2.933-.571-4.727-2.278-1.795-1.706-2.446-4.199-.634-2.489-.087-5.39.592-2.947 2.146-4.992 1.557-2.062 3.875-2.949t5.216-.323q3.127.609 5.033 2.595 1.923 1.988 2.103 4.829l-3.881.344q-.234-1.714-1.317-2.842-1.06-1.143-2.669-1.455-1.82-.355-3.155.284-1.331.621-2.185 1.994-.855 1.374-1.244 3.279-.558 2.954.413 5.032.989 2.081 3.603 2.591 1.785.348 3.039-.252 1.274-.614 2.157-2.037l3.573 1.613q-1.48 2.609-3.928 3.691-2.445 1.065-5.519.465m25.417 4.402 1.827-9.382q.217-1.113.25-2.317a7 7 0 0 0-.28-2.329 4.2 4.2 0 0 0-1.15-1.911q-.816-.8-2.335-1.097a5.3 5.3 0 0 0-1.938-.029 4 4 0 0 0-1.758.74q-.795.597-1.414 1.705-.602 1.112-.932 2.807l-2.128-1.313q.506-2.596 1.863-4.386 1.36-1.807 3.397-2.566t4.616-.256q1.979.386 3.198 1.283t1.846 2.102q.648 1.19.853 2.495t.136 2.502a16 16 0 0 1-.241 2.08l-2.065 10.601zm-13.41-2.613 4.956-25.442 3.304.644-2.674 13.728.441.086-2.282 11.714zm29.94 6.383q-2.862-.558-4.713-2.257t-2.559-4.185q-.687-2.499-.109-5.467.582-2.986 2.189-5.02 1.61-2.052 3.956-2.897 2.35-.863 5.16-.315 2.862.557 4.713 2.256 1.852 1.7 2.559 4.185t.133 5.436q-.581 2.986-2.191 5.038-1.59 2.037-3.943 2.918-2.35.862-5.195.308m.678-3.481q2.74.534 4.439-1.042 1.722-1.59 2.29-4.505.582-2.987-.449-5.039-1.008-2.067-3.712-2.594-1.856-.362-3.222.253-1.363.596-2.235 1.967-.869 1.353-1.248 3.296-.584 3.004.442 5.074 1.028 2.07 3.695 2.59m20.855 7.676q-2.862-.558-4.713-2.257-1.852-1.7-2.56-4.185-.686-2.5-.108-5.467.582-2.986 2.188-5.021 1.611-2.052 3.957-2.896 2.35-.863 5.16-.316 2.862.558 4.713 2.257t2.559 4.185.133 5.435q-.581 2.986-2.192 5.038-1.589 2.038-3.942 2.918-2.35.863-5.195.309m.678-3.481q2.739.533 4.439-1.042 1.722-1.59 2.29-4.506.582-2.986-.449-5.038-1.01-2.068-3.712-2.594-1.856-.361-3.222.252-1.363.597-2.235 1.967-.87 1.353-1.248 3.297-.585 3.003.442 5.074t3.695 2.59m13.025 5.6 5.06-25.972 3.692.72-5.059 25.971zm16.195 3.687q-3.48-.678-5.372-2.642t-1.842-4.852l3.895.153a3.9 3.9 0 0 0 1.167 2.667q1.125 1.1 3.033 1.471 1.731.337 2.841-.18 1.126-.514 1.368-1.751.141-.724-.126-1.235-.247-.525-1.263-1.144-1.016-.62-3.143-1.658-2.332-1.115-3.64-2.121-1.286-1.02-1.715-2.113-.408-1.107-.136-2.502.337-1.731 1.507-2.842t2.969-1.494q1.816-.38 4.059.057 2.192.427 3.771 1.45 1.58 1.023 2.392 2.501.815 1.46.697 3.199l-3.915-.048q.073-1.416-.867-2.424-.94-1.01-2.675-1.42-1.665-.398-2.831.035-1.163.416-1.377 1.511-.124.636.179 1.153.32.522 1.39 1.151 1.068.63 3.203 1.633 2.282 1.086 3.547 2.121 1.27 1.018 1.667 2.177.418 1.145.133 2.612-.55 2.826-2.931 4.032-2.363 1.208-5.985.503"/></g><defs><linearGradient id="b" x1="52.172" x2="90.196" y1="200.5" y2="22.895" gradientUnits="userSpaceOnUse"><stop stop-color="#FFCDF7"/><stop offset="1" stop-color="#FAC4CB"/></linearGradient><filter id="a" width="850.043" height="448.688" x=".376" y=".044" color-interpolation-filters="sRGB" filterUnits="userSpaceOnUse"><feFlood flood-opacity="0" result="BackgroundImageFix"/><feColorMatrix in="SourceAlpha" result="hardAlpha" values="0 0 0 0 0 0 0 0 0 0 0 0 0 0 0 0 0 0 127 0"/><feOffset/><feGaussianBlur stdDeviation="25"/><feComposite in2="hardAlpha" operator="out"/><feColorMatrix values="0 0 0 0 0.713726 0 0 0 0 1 0 0 0 0 0.964706 0 0 0 0.5 0"/><feBlend in2="BackgroundImageFix" result="effect1_dropShadow_516_548"/><feBlend in="SourceGraphic" in2="effect1_dropShadow_516_548" result="shape"/></filter></defs></svg>

<svg width="851" height="449" viewBox="0 0 851 449" fill="none" xmlns="http://www.w3.org/2000/svg">
<g filter="url(#filter0_d_516_548)">
<path d="M160.729 51.8143L87.3421 110.929L791.433 248.091L738.204 163.968C737.027 162.108 735.135 160.815 732.974 160.394L167.277 50.1921C164.962 49.7411 162.566 50.3347 160.729 51.8143Z" fill="#EC6D7F"/>
<path d="M81.5808 112.657C85.8075 106.038 93.7006 103.577 101.409 105.078L778.186 236.919C787.652 238.763 795.183 246.102 796.794 255.611C805.627 307.726 798.802 340.88 770.951 387.567C765.92 396 756.033 400.165 746.394 398.288L68.3842 266.207C61.5694 264.879 55.6886 260.608 53.8737 253.906C50.4996 241.447 47.2893 217.31 55.8612 179.986C63.9805 144.633 74.5609 123.649 81.5808 112.657Z" fill="url(#paint0_linear_516_548)"/>
<path d="M318.809 248.789L319.467 245.507L332.479 237.735C333.528 237.121 334.282 236.485 334.739 235.828C335.209 235.174 335.514 234.488 335.654 233.769C335.831 232.862 335.789 232.011 335.528 231.214C335.27 230.406 334.829 229.721 334.205 229.159C333.581 228.597 332.809 228.227 331.891 228.048C330.948 227.865 330.063 227.924 329.233 228.227C328.418 228.521 327.733 228.993 327.179 229.643C326.624 230.293 326.27 231.043 326.117 231.893L322.336 231.156C322.657 229.507 323.309 228.137 324.292 227.045C325.289 225.943 326.509 225.172 327.952 224.732C329.397 224.28 330.962 224.218 332.646 224.546C334.248 224.858 335.614 225.503 336.744 226.481C337.876 227.447 338.684 228.632 339.169 230.034C339.666 231.439 339.757 232.949 339.442 234.562C339.215 235.728 338.869 236.688 338.405 237.441C337.94 238.194 337.334 238.858 336.586 239.434C335.838 240.01 334.926 240.614 333.849 241.248L323.811 247.215L323.611 246.076L336.703 248.626L336.018 252.142L318.809 248.789ZM347.692 254.985C346.385 254.73 345.218 254.227 344.19 253.477C343.177 252.717 342.361 251.788 341.744 250.69C341.129 249.58 340.771 248.373 340.67 247.07L344.407 246.808C344.461 247.6 344.675 248.321 345.05 248.968C345.437 249.618 345.93 250.161 346.53 250.595C347.133 251.018 347.787 251.299 348.494 251.436C349.424 251.618 350.31 251.558 351.151 251.257C352.004 250.959 352.722 250.475 353.304 249.806C353.899 249.139 354.284 248.353 354.461 247.446C354.642 246.515 354.577 245.628 354.264 244.785C353.963 243.944 353.473 243.231 352.792 242.646C352.125 242.052 351.338 241.666 350.431 241.489C349.395 241.287 348.477 241.323 347.679 241.595C346.88 241.867 346.227 242.235 345.721 242.699L342.726 240.942L346.109 227.719L359.837 230.393L359.159 233.874L347.321 231.568L349.095 230.464L346.525 240.362L345.983 239.284C346.785 238.743 347.686 238.387 348.685 238.215C349.685 238.043 350.644 238.046 351.562 238.225C353.141 238.533 354.477 239.172 355.572 240.143C356.678 241.117 357.468 242.304 357.941 243.704C358.416 245.093 358.499 246.582 358.189 248.172C357.881 249.75 357.195 251.108 356.13 252.245C355.067 253.371 353.79 254.186 352.298 254.69C350.806 255.194 349.271 255.292 347.692 254.985ZM367.955 253.485L369.229 246.948L362.692 245.675L363.27 242.707L369.807 243.98L371.074 237.478L374.042 238.057L372.775 244.558L379.295 245.828L378.716 248.797L372.197 247.527L370.924 254.064L367.955 253.485ZM397.302 264.649C395.476 264.293 393.888 263.66 392.537 262.749C391.201 261.828 390.169 260.692 389.442 259.34C388.729 257.979 388.389 256.464 388.42 254.795L392.385 254.962C392.471 256.593 393.048 257.964 394.115 259.077C395.184 260.177 396.543 260.888 398.192 261.21C399.217 261.409 400.19 261.434 401.112 261.283C402.036 261.121 402.816 260.79 403.451 260.29C404.1 259.781 404.507 259.102 404.673 258.254C404.762 257.795 404.759 257.372 404.663 256.987C404.579 256.604 404.42 256.255 404.188 255.941C403.97 255.617 403.679 255.322 403.315 255.056C402.966 254.78 402.569 254.525 402.125 254.292L395.981 251.096C395.382 250.784 394.781 250.416 394.179 249.993C393.579 249.559 393.049 249.046 392.589 248.455C392.144 247.855 391.821 247.162 391.619 246.377C391.42 245.58 391.421 244.664 391.623 243.627C391.928 242.061 392.587 240.813 393.599 239.886C394.625 238.949 395.881 238.338 397.367 238.053C398.855 237.756 400.453 237.774 402.161 238.106C403.876 238.465 405.353 239.07 406.593 239.923C407.845 240.778 408.81 241.847 409.49 243.128C410.183 244.4 410.548 245.853 410.585 247.486L406.496 247.386C406.506 246.398 406.288 245.506 405.844 244.71C405.402 243.903 404.799 243.235 404.034 242.707C403.271 242.167 402.402 241.796 401.426 241.594C400.489 241.387 399.595 241.36 398.747 241.512C397.91 241.667 397.202 241.975 396.623 242.437C396.055 242.901 395.702 243.493 395.562 244.211C395.424 244.918 395.519 245.529 395.846 246.045C396.174 246.561 396.612 247.008 397.163 247.384C397.727 247.75 398.293 248.075 398.862 248.357L403.304 250.597C403.86 250.877 404.482 251.23 405.169 251.657C405.87 252.075 406.52 252.599 407.119 253.229C407.729 253.862 408.184 254.635 408.482 255.549C408.783 256.451 408.813 257.52 408.572 258.757C408.322 260.041 407.843 261.121 407.134 261.998C406.428 262.863 405.557 263.537 404.521 264.02C403.5 264.493 402.368 264.78 401.126 264.88C399.884 264.981 398.609 264.904 397.302 264.649ZM418.982 268.872C417.027 268.491 415.451 267.732 414.255 266.594C413.058 265.457 412.243 264.057 411.809 262.395C411.386 260.736 411.357 258.939 411.722 257.005C412.117 255.04 412.832 253.376 413.868 252.013C414.906 250.638 416.198 249.655 417.743 249.064C419.289 248.473 421.027 248.365 422.959 248.741C425.044 249.147 426.721 250.012 427.992 251.336C429.274 252.661 429.975 254.271 430.095 256.165L426.214 256.509C426.058 255.366 425.619 254.419 424.897 253.667C424.19 252.905 423.3 252.42 422.228 252.212C421.015 251.975 419.963 252.07 419.073 252.496C418.186 252.91 417.457 253.575 416.888 254.49C416.318 255.406 415.903 256.499 415.644 257.769C415.272 259.738 415.41 261.416 416.057 262.801C416.716 264.189 417.917 265.052 419.66 265.392C420.85 265.624 421.863 265.54 422.699 265.14C423.548 264.731 424.268 264.052 424.856 263.103L428.429 264.716C427.443 266.455 426.133 267.686 424.501 268.407C422.871 269.117 421.032 269.272 418.982 268.872ZM444.399 273.274L446.226 263.892C446.371 263.15 446.454 262.377 446.476 261.575C446.512 260.763 446.419 259.987 446.196 259.246C445.985 258.508 445.602 257.871 445.046 257.335C444.502 256.801 443.724 256.436 442.711 256.238C442.051 256.11 441.405 256.1 440.773 256.209C440.142 256.307 439.557 256.553 439.015 256.949C438.485 257.347 438.014 257.915 437.601 258.654C437.2 259.395 436.889 260.331 436.669 261.461L434.541 260.148C434.878 258.417 435.499 256.955 436.404 255.762C437.311 254.557 438.443 253.702 439.801 253.196C441.159 252.69 442.697 252.605 444.417 252.94C445.736 253.197 446.802 253.625 447.615 254.223C448.427 254.821 449.043 255.522 449.461 256.325C449.893 257.118 450.177 257.95 450.314 258.82C450.45 259.69 450.495 260.524 450.45 261.322C450.404 262.12 450.324 262.814 450.209 263.402L448.144 274.003L444.399 273.274ZM430.989 270.661L435.945 245.219L439.249 245.863L436.575 259.591L437.016 259.677L434.734 271.391L430.989 270.661ZM460.929 277.044C459.021 276.672 457.45 275.92 456.216 274.787C454.982 273.654 454.129 272.259 453.657 270.602C453.199 268.936 453.163 267.114 453.548 265.135C453.936 263.144 454.665 261.471 455.737 260.115C456.81 258.747 458.129 257.781 459.693 257.218C461.26 256.643 462.98 256.538 464.853 256.903C466.761 257.274 468.332 258.027 469.566 259.159C470.8 260.292 471.654 261.687 472.125 263.344C472.597 265.001 472.642 266.813 472.258 268.78C471.871 270.77 471.14 272.45 470.067 273.818C469.007 275.176 467.693 276.149 466.124 276.736C464.557 277.311 462.826 277.413 460.929 277.044ZM461.607 273.563C463.433 273.919 464.913 273.572 466.046 272.521C467.194 271.461 467.958 269.959 468.336 268.016C468.724 266.025 468.574 264.345 467.887 262.977C467.215 261.599 465.977 260.734 464.175 260.383C462.938 260.142 461.864 260.226 460.953 260.636C460.044 261.033 459.299 261.689 458.718 262.603C458.139 263.505 457.723 264.603 457.47 265.899C457.08 267.901 457.228 269.593 457.912 270.973C458.597 272.353 459.829 273.217 461.607 273.563ZM482.462 281.239C480.554 280.867 478.983 280.115 477.749 278.982C476.514 277.849 475.661 276.454 475.189 274.797C474.732 273.131 474.695 271.308 475.081 269.33C475.469 267.339 476.198 265.666 477.269 264.309C478.343 262.941 479.662 261.976 481.226 261.413C482.793 260.838 484.513 260.732 486.386 261.097C488.294 261.469 489.865 262.221 491.099 263.354C492.333 264.487 493.186 265.882 493.658 267.539C494.13 269.196 494.174 271.007 493.791 272.974C493.403 274.965 492.673 276.644 491.599 278.012C490.54 279.371 489.226 280.343 487.657 280.93C486.09 281.505 484.358 281.608 482.462 281.239ZM483.14 277.758C484.966 278.114 486.445 277.766 487.579 276.716C488.727 275.656 489.49 274.154 489.869 272.21C490.257 270.22 490.107 268.54 489.42 267.172C488.747 265.793 487.51 264.929 485.708 264.578C484.471 264.337 483.397 264.421 482.486 264.83C481.577 265.228 480.832 265.884 480.251 266.797C479.671 267.699 479.256 268.798 479.003 270.094C478.613 272.096 478.76 273.787 479.445 275.168C480.13 276.548 481.361 277.412 483.14 277.758ZM496.165 283.358L501.225 257.386L504.917 258.106L499.858 284.077L496.165 283.358ZM512.36 287.045C510.04 286.593 508.249 285.712 506.988 284.403C505.727 283.094 505.113 281.476 505.146 279.551L509.041 279.704C509.083 280.74 509.473 281.629 510.208 282.371C510.958 283.104 511.969 283.594 513.241 283.842C514.395 284.067 515.342 284.007 516.082 283.662C516.833 283.319 517.289 282.736 517.45 281.911C517.544 281.428 517.502 281.017 517.324 280.676C517.159 280.326 516.739 279.945 516.061 279.532C515.384 279.119 514.336 278.566 512.918 277.874C511.363 277.131 510.15 276.424 509.278 275.753C508.421 275.073 507.849 274.368 507.563 273.64C507.291 272.902 507.246 272.068 507.427 271.138C507.652 269.984 508.154 269.036 508.934 268.296C509.714 267.555 510.704 267.057 511.903 266.802C513.113 266.549 514.467 266.568 515.962 266.859C517.423 267.144 518.68 267.627 519.733 268.309C520.786 268.991 521.583 269.824 522.125 270.81C522.668 271.784 522.901 272.85 522.822 274.009L518.907 273.961C518.956 273.017 518.667 272.209 518.04 271.537C517.413 270.864 516.521 270.391 515.365 270.117C514.255 269.852 513.311 269.863 512.534 270.152C511.758 270.429 511.3 270.933 511.157 271.663C511.075 272.087 511.134 272.471 511.336 272.816C511.55 273.164 512.013 273.547 512.726 273.967C513.438 274.387 514.506 274.931 515.929 275.6C517.45 276.324 518.633 277.031 519.476 277.721C520.322 278.4 520.878 279.125 521.143 279.898C521.422 280.662 521.466 281.532 521.276 282.51C520.909 284.394 519.932 285.738 518.345 286.542C516.77 287.347 514.775 287.515 512.36 287.045Z" fill="#EC6D7F"/>
</g>
<defs>
<filter id="filter0_d_516_548" x="0.37616" y="0.0444336" width="850.043" height="448.688" filterUnits="userSpaceOnUse" color-interpolation-filters="sRGB">
<feFlood flood-opacity="0" result="BackgroundImageFix"/>
<feColorMatrix in="SourceAlpha" type="matrix" values="0 0 0 0 0 0 0 0 0 0 0 0 0 0 0 0 0 0 127 0" result="hardAlpha"/>
<feOffset/>
<feGaussianBlur stdDeviation="25"/>
<feComposite in2="hardAlpha" operator="out"/>
<feColorMatrix type="matrix" values="0 0 0 0 0.713726 0 0 0 0 1 0 0 0 0 0.964706 0 0 0 0.5 0"/>
<feBlend mode="normal" in2="BackgroundImageFix" result="effect1_dropShadow_516_548"/>
<feBlend mode="normal" in="SourceGraphic" in2="effect1_dropShadow_516_548" result="shape"/>
</filter>
<linearGradient id="paint0_linear_516_548" x1="52.1723" y1="200.5" x2="90.1962" y2="22.8951" gradientUnits="userSpaceOnUse">
<stop stop-color="#FFCDF7"/>
<stop offset="1" stop-color="#FAC4CB"/>
</linearGradient>
</defs>
</svg>
